images/section-about-icons/about_icon_1.svg

<svg width="170" height="170" viewBox="0 0 170 170" fill="none" xmlns="http://www.w3.org/2000/svg">
<path d="M76.5232 103.136H93.4733H76.5232ZM85 52.3549V55.9821V52.3549ZM108.084 61.9163L105.519 64.4807L108.084 61.9163ZM117.645 85H114.018H117.645ZM55.9821 85H52.3549H55.9821ZM64.4807 64.4807L61.9163 61.9163L64.4807 64.4807ZM72.1741 97.8259C69.6382 95.2894 67.9114 92.0578 67.212 88.5398C66.5126 85.0219 66.872 81.3756 68.2448 78.0619C69.6176 74.7482 71.9422 71.916 74.9246 69.9234C77.907 67.9307 81.4132 66.8672 85 66.8672C88.5868 66.8672 92.0931 67.9307 95.0755 69.9234C98.0578 71.916 100.382 74.7482 101.755 78.0619C103.128 81.3756 103.487 85.0219 102.788 88.5398C102.089 92.0578 100.362 95.2894 97.8259 97.8259L95.8382 99.81C94.7018 100.947 93.8005 102.296 93.1856 103.781C92.5707 105.266 92.2543 106.857 92.2545 108.465V110.391C92.2545 112.315 91.4902 114.16 90.1297 115.52C88.7692 116.881 86.924 117.645 85 117.645C83.076 117.645 81.2308 116.881 79.8703 115.52C78.5099 114.16 77.7455 112.315 77.7455 110.391V108.465C77.7455 105.218 76.4542 102.102 74.1618 99.81L72.1741 97.8259Z" stroke="#EC7979" stroke-width="6.83333" stroke-linecap="round" stroke-linejoin="round"/>
<circle cx="85" cy="85" r="45.5" stroke="#EC7979"/>
</svg>

<svg width="170" height="170" fill="none" xmlns="http://www.w3.org/2000/svg"><path d="M76.523 103.136h16.95-16.95zM85 52.355v3.627-3.627zm23.084 9.561-2.565 2.565 2.565-2.565zM117.645 85h-3.627 3.627zm-61.663 0h-3.627 3.627zm8.499-20.52-2.565-2.564 2.565 2.565zm7.693 33.346a18.136 18.136 0 1 1 25.652 0l-1.988 1.984a12.242 12.242 0 0 0-3.584 8.655v1.926A7.252 7.252 0 0 1 85 117.645a7.253 7.253 0 0 1-7.254-7.254v-1.926c0-3.247-1.292-6.363-3.584-8.655l-1.988-1.984z" stroke="#EC7979" stroke-width="6.833" stroke-linecap="round" stroke-linejoin="round"/><circle cx="85" cy="85" r="45.5" stroke="#EC7979"/></svg>
